X: 72
T: Da shengchan
L: 1/8
M: 2/4
K: F
d2d c [I:setbarnb 1]| 
d2d c | 
c df2 | 
f dc2 | 
c d f f | 
f d c f | 
d c A G | 
F4 | 
c DF2 | 
GB2d | 
c B G B | 
c4 | 
cc2d | 
f2f d | 
B2c2 | 
B GF2 |]

@@@ Tune index: 8946
